X: 8
T: Convenience, The
C: Olcan Masterson
Z: JACKB
S: https://thesession.org/tunes/226#setting51270
R: reel
M: 4/4
L: 1/8
K: Dmaj
|:dABA dABA|GAFA EADA|dABA dABA|FAEA D3 A:|
|:df f2 dfed|cdef gecA|df f2 dfed|cABc d2 (3ABc|
df f2 dfed|cdef gefg|af f2 gfed|cABc defg:||
|:a3f gfed|cdef gefg|a3f gfed|cABc defg|
a3f a3f|g3e g3e|fgaf gbag|fdec d3 A:||

%-------------------- TUNE SEPARATOR --------------------%

